X: 311
T: the Banks of Lough Foyle   #2
T: brua\`ca lo\`ca feabhail
R: air, waltz, jig
%S: s:2 b:16(8+8)
B: O'Neill's 1850 #311
O: J.O'Neill
Z: 1999 by John Chambers <jc@trillian.mit.edu>
Q: "Gaily"
M: 6/8
L: 1/8
K:C
(G/A/) "^A"|: c2c (dcd) | (eg)>e d>cd | e>dc cAG |1 (GAc) d2 (e/d/) :|2 GAc "fine"c2 :|
"^B" || (d/e/) | (f2g) age | (g2e) (d2e) | fga age | (e/g/)(f/e/)(d/c/) d2 "^->A2"(e/d/) |]
